src/view/frontend/web/svg/heroicons/outline/status-offline.svg

<svg  viewBox="0 0 24 24" fill="none" stroke="currentColor" xmlns="http://www.w3.org/2000/svg">
<path d="M18.364 5.63605C21.8787 9.15077 21.8787 14.8493 18.364 18.364M18.364 18.364L15.5355 15.5355M18.364 18.364L21 21M15.5355 8.46447C17.4882 10.4171 17.4882 13.5829 15.5355 15.5355M15.5355 15.5355L12.7071 12.7071M8.46447 15.5355C7.66839 14.7395 7.19687 13.7417 7.04991 12.7068M5.63604 18.364C3.13732 15.8652 2.41501 12.2628 3.46913 9.12598M11.2929 11.2929C11.4739 11.1119 11.7239 11 12 11C12.5523 11 13 11.4477 13 12C13 12.2761 12.8881 12.5261 12.7071 12.7071M11.2929 11.2929L3 3M11.2929 11.2929L12.7071 12.7071"  stroke-width="2" stroke-linecap="round" stroke-linejoin="round"/>
</svg>

<svg xmlns="http://www.w3.org/2000/svg" fill="none" stroke="currentColor" viewBox="0 0 24 24"><path stroke-linecap="round" stroke-linejoin="round" stroke-width="2" d="M18.364 5.636a9 9 0 0 1 0 12.728m0 0-2.829-2.829m2.829 2.829L21 21M15.536 8.464a5 5 0 0 1 0 7.072m0 0-2.829-2.829m-4.243 2.829a4.978 4.978 0 0 1-1.414-2.83m-1.414 5.658a9 9 0 0 1-2.167-9.238m7.824 2.167a1 1 0 1 1 1.414 1.414m-1.414-1.414L3 3m8.293 8.293 1.414 1.414"/></svg>
